X: 2
T: The Singing Stream
R: reel
M: 4/4
L: 1/8
K: Dmaj
dA~A2 FAdF|Adef edBc|dA~A2 fged|edef g2fe|
dA~A2 FAdF|Adef ed(3efg|a3b bagf|1edef g2fe:|2edef g2fg|
adde cdef|g2fg egfe|dA~A2 FAdf|fgfd efge|
a2de cdef|g3f egfe|dA~A2 FAdf|edef d2fg|
a2de cdef|g3f egfe|dA~A2 FAdf|fgfd efge|
a3b bagf|edef gefe|dFAd FAdG|AdFA dgfe|]


Tune 2465	Setting 25589

